icons/circle-arrow-left.svg

<svg width="24" height="24" viewBox="0 0 24 24" fill="none" xmlns="http://www.w3.org/2000/svg">
<path fill-rule="evenodd" clip-rule="evenodd" d="M4 12C4 16.4183 7.58172 20 12 20C16.4183 20 20 16.4183 20 12C20 7.58172 16.4183 4 12 4C7.58172 4 4 7.58172 4 12ZM12 22C6.47715 22 2 17.5228 2 12C2 6.47715 6.47715 2 12 2C17.5228 2 22 6.47715 22 12C22 17.5228 17.5228 22 12 22ZM10.2929 15.7071L7.29289 12.7071C6.90237 12.3166 6.90237 11.6834 7.29289 11.2929L10.2929 8.29289C10.6834 7.90237 11.3166 7.90237 11.7071 8.29289C12.0976 8.68342 12.0976 9.31658 11.7071 9.70711L10.4142 11L16 11C16.5523 11 17 11.4477 17 12C17 12.5523 16.5523 13 16 13L10.4142 13L11.7071 14.2929C12.0976 14.6834 12.0976 15.3166 11.7071 15.7071C11.3166 16.0976 10.6834 16.0976 10.2929 15.7071Z" fill="black"/>
</svg>

<svg
  width="24"
  height="24"
  viewBox="0 0 24 24"
  xmlns="http://www.w3.org/2000/svg"
>
  <path
    fill-rule="evenodd"
    clip-rule="evenodd"
    d="M4 12a8 8 0 1 0 16 0 8 8 0 0 0-16 0zm8 10C6.477 22 2 17.523 2 12S6.477 2 12 2s10 4.477 10 10-4.477 10-10 10zm-1.707-6.293l-3-3a1 1 0 0 1 0-1.414l3-3a1 1 0 1 1 1.414 1.414L10.414 11H16a1 1 0 1 1 0 2h-5.586l1.293 1.293a1 1 0 0 1-1.414 1.414z"
  />
</svg>
